X:854
T:Rowan Tree
S:Forgotten
Z:Nigel Gatherer
L:1/8
M:2/4
K:D
D/E/ | F>F FE  | F<A Ad  | B>A Bd  | BA A
D/E/ | F>F FE  | F<A B>A | A<F E>F | D3   ||
A    | A>d d>c | cB  Bd  | A>B AF  | FE E
D/E/ | F>F FE  | F<A B>A | A<F E>F | D3   |]
